src/images/pen.inline.svg

<svg width="80" height="132" viewBox="0 0 80 132" fill="none" xmlns="http://www.w3.org/2000/svg" color-interpolation-filters="sRGB">
<g class="fill-shadow">
<path d="M63.2589 72.84L33.5089 17.06C32.7589 15.65 30.7389 15.65 29.9789 17.05L0.238883 72.41C-0.0711174 72.99 -0.0811064 73.68 0.218894 74.26L17.2989 107.88C17.5789 108.43 17.5889 109.09 17.3189 109.65L9.09888 126.9C8.46888 128.23 9.43888 129.76 10.9089 129.76H52.5689C54.0389 129.76 55.0089 128.23 54.3789 126.9L46.1689 109.65C45.8989 109.09 45.9089 108.43 46.1989 107.88L63.2689 74.69C63.5689 74.11 63.5689 73.42 63.2589 72.84Z" class="opacity-20"/>
<path d="M71.2589 64.8388L41.5089 9.05876C40.7589 7.64876 38.7389 7.64875 37.9789 9.04875L8.23889 64.4088C7.92889 64.9888 7.91889 65.6788 8.21889 66.2588L25.2989 99.8788C25.5789 100.429 25.5889 101.089 25.3189 101.649L17.0989 118.899C16.4689 120.229 17.4389 121.759 18.9089 121.759H60.5689C62.0389 121.759 63.0089 120.229 62.3789 118.899L54.1689 101.649C53.8989 101.089 53.9089 100.429 54.1989 99.8788L71.2689 66.6888C71.5689 66.1088 71.5689 65.4088 71.2589 64.8388Z" class="opacity-40"/>
</g>
<path d="M36 61C36 58.39 37.67 56.17 40 55.35V5.71997L11.98 57.89C10.74 60.2 10.71 62.96 11.9 65.3L28 97L19.36 115.14C18.73 116.47 19.7 118 21.17 118H42V67C38.69 67 36 64.31 36 61Z" fill="#F4ECEB"/>
<path opacity="0.6" d="M16.74 59.85L40 5.71997L11.98 57.89C10.74 60.2 10.71 62.96 11.9 65.3L28 97L19.36 115.14C18.73 116.47 19.7 118 21.17 118H24L34 97L16.85 63.24C16.31 62.19 16.27 60.94 16.74 59.85Z" fill="#DBD4BF"/>
<path d="M56 97L72.08 65.73C73.28 63.4 73.26 60.62 72.02 58.31L44 5.75V55.35C46.33 56.17 48 58.39 48 61C48 64.31 45.31 67 42 67V118H62.83C64.3 118 65.27 116.47 64.64 115.14L56 97Z" fill="#DBD4BF"/>
<path opacity="0.6" d="M67.26 59.85L44 5.71997L72.02 57.89C73.26 60.2 73.29 62.96 72.1 65.3L56 97L64.64 115.14C65.27 116.47 64.3 118 62.83 118H60L50 97L67.15 63.24C67.69 62.19 67.73 60.94 67.26 59.85Z" fill="#628A85"/>
<path d="M56.95 99L56 97L57.03 95H26.98L28 97L27.05 99H56.95Z" fill="#829994"/>
</svg>

<svg xmlns="http://www.w3.org/2000/svg" width="80" height="132" fill="none" color-interpolation-filters="sRGB">
  <g class="fill-shadow">
    <path d="M63.259 72.84l-29.75-55.78c-.75-1.41-2.77-1.41-3.53-.01L.239 72.41c-.31.58-.32 1.27-.02 1.85l17.08 33.62c.28.55.29 1.21.02 1.77l-8.22 17.25c-.63 1.33.34 2.86 1.81 2.86h41.66c1.47 0 2.44-1.53 1.81-2.86l-8.21-17.25a1.97 1.97 0 01.03-1.77l17.07-33.19c.3-.58.3-1.27-.01-1.85z" class="opacity-20"/>
    <path d="M71.259 64.839l-29.75-55.78c-.75-1.41-2.77-1.41-3.53-.01l-29.74 55.36c-.31.58-.32 1.27-.02 1.85l17.08 33.62c.28.55.29 1.21.02 1.77l-8.22 17.25c-.63 1.33.34 2.86 1.81 2.86h41.66c1.47 0 2.44-1.53 1.81-2.86l-8.21-17.25a1.97 1.97 0 01.03-1.77l17.07-33.19c.3-.58.3-1.28-.01-1.85z" class="opacity-40"/>
  </g>
  <path fill="#F4ECEB" d="M36 61a5.99 5.99 0 014-5.65V5.72L11.98 57.89a7.988 7.988 0 00-.08 7.41L28 97l-8.64 18.14c-.63 1.33.34 2.86 1.81 2.86H42V67c-3.31 0-6-2.69-6-6z"/>
  <path fill="#382E4D" d="M16.74 59.85L40 5.72 11.98 57.89a7.988 7.988 0 00-.08 7.41L28 97l-8.64 18.14c-.63 1.33.34 2.86 1.81 2.86H24l10-21-17.15-33.76c-.54-1.05-.58-2.3-.11-3.39z" opacity=".2"/>
  <path fill="#fff" d="M56 97l16.08-31.27a7.98 7.98 0 00-.06-7.42L44 5.75v49.6c2.33.82 4 3.04 4 5.65 0 3.31-2.69 6-6 6v51h20.83c1.47 0 2.44-1.53 1.81-2.86L56 97z"/>
  <path fill="#58375B" d="M67.26 59.85L44 5.72l28.02 52.17a7.988 7.988 0 01.08 7.41L56 97l8.64 18.14c.63 1.33-.34 2.86-1.81 2.86H60L50 97l17.15-33.76c.54-1.05.58-2.3.11-3.39z" opacity=".2"/>
  <path fill="#382E4D" d="M56.95 99L56 97l1.03-2H26.98L28 97l-.95 2h29.9z"/>
</svg>
